src/static/enel.svg

<svg width="127" height="44" viewBox="0 0 127 44" fill="none" xmlns="http://www.w3.org/2000/svg">
<g clip-path="url(#clip0)">
<path d="M116.252 0.135376H121.453V32.2026H121.425C121.451 35.6835 123.19 37.1951 126.182 39.1454L123.223 43.18C118.82 40.443 116.278 37.343 116.253 32.2026L116.252 32.1241V0.135376Z" fill="black"/>
<path d="M45.664 24.7622V14.7805C48.6236 12.0034 52.6897 10.2743 57.2259 10.2743H57.6132V10.2788C65.3548 10.4801 71.6368 16.4323 71.6368 23.8977L71.6368 42.7345H66.4367L66.4367 23.8977C66.4367 19.0509 62.3707 15.2783 57.3642 15.1997H57.2259C50.145 15.1997 46.4385 20.8062 45.664 24.7622Z" fill="black"/>
<path d="M45.664 11.6106H40.4639V28.8232H45.664V11.6106Z" fill="black"/>
<path d="M35.2918 23.8977H17.1191V28.8231H35.2918V23.8977Z" fill="black"/>
<path d="M18.1146 10.248C13.3372 10.2739 8.99088 12.1117 5.84684 15.0813L5.8336 15.0688C2.68038 18.0816 0.744183 22.1948 0.744141 26.7533V26.8844C0.781509 31.4427 2.76612 35.532 5.94424 38.4903C9.088 41.4153 13.3854 43.2061 18.1146 43.2061L18.1146 43.2322C23.7296 43.2322 28.7361 40.7171 31.917 36.7873L27.7957 33.8007C25.5709 36.5062 22.1189 38.2818 18.1979 38.3066L18.1976 38.2808H18.0869C14.7617 38.2808 11.7588 37.0343 9.55453 34.9925L9.56771 34.9797C7.34557 32.901 5.93972 30.0233 5.91686 26.8323L5.94424 26.832V26.7272C5.94424 23.531 7.29958 20.6491 9.51239 18.5532C11.7004 16.494 14.7045 15.195 18.0313 15.1737L18.0316 15.1996H18.1423C21.5168 15.1996 24.5594 16.4834 26.7722 18.5793C28.3065 20.0341 29.4374 21.8646 29.9808 23.8977H35.2915C34.6658 20.4964 32.9164 17.45 30.4379 15.1073L30.451 15.0949C27.2978 12.1082 22.9551 10.2743 18.1423 10.2743H18.1146V10.248Z" fill="black"/>
<path fill-rule="evenodd" clip-rule="evenodd" d="M76.5049 26.7532C76.5049 22.248 78.396 18.1778 81.4841 15.2001C84.6374 12.161 89.0348 10.2742 93.8753 10.248V15.1734C90.5154 15.1734 87.4794 16.4767 85.2731 18.553C83.0603 20.6489 81.705 23.5308 81.705 26.727V26.8318L81.6776 26.8321C81.7004 30.0231 83.1063 32.9009 85.3285 34.9797L85.3153 34.9925C87.5195 37.0343 90.5225 38.2808 93.8477 38.2808H93.9583L93.9586 38.3067C97.8639 38.29 101.354 36.5125 103.584 33.8007L107.705 36.7873C104.525 40.7171 99.5181 43.2322 93.9031 43.2322V43.2061H93.8753C89.1461 43.2061 84.8487 41.4153 81.705 38.4903C78.5268 35.532 76.5422 31.4426 76.5049 26.8842V26.7532ZM102.45 18.5008C104.027 19.9679 105.188 21.828 105.741 23.8977H92.9072V28.823H111.08V23.8977H111.052C110.416 20.4395 108.646 17.348 106.073 14.9901L102.45 18.5008Z" fill="black"/>
</g>
<defs>
<clipPath id="clip0">
<path d="M0.601074 0H127V44H0.601074V0Z" fill="white"/>
</clipPath>
</defs>
</svg>

<svg xmlns="http://www.w3.org/2000/svg" viewBox="0 0 127 44">
    <path d="M116.252.135h5.201v32.068h-.028c.026 3.48 1.765 4.992 4.757 6.942l-2.959 4.035c-4.403-2.737-6.945-5.837-6.97-10.977l-.001-.079V.135zM45.664 24.762V14.78c2.96-2.777 7.026-4.506 11.562-4.506h.387v.005c7.742.201 14.024 6.153 14.024 13.619v18.836h-5.2V23.898c0-4.847-4.066-8.62-9.073-8.698h-.138c-7.081 0-10.788 5.606-11.562 9.562zM45.664 11.61h-5.2v17.213h5.2V11.611zM35.292 23.898H17.119v4.925h18.173v-4.925z"/>
    <path d="M18.115 10.248c-4.778.026-9.124 1.864-12.268 4.833l-.013-.012C2.68 18.082.744 22.195.744 26.753v.131c.038 4.559 2.022 8.648 5.2 11.606 3.144 2.925 7.441 4.716 12.17 4.716v.026c5.616 0 10.622-2.515 13.803-6.445l-4.121-2.986c-2.225 2.705-5.677 4.48-9.598 4.506v-.026h-.111c-3.325 0-6.328-1.247-8.532-3.288l.013-.013C7.346 32.9 5.94 30.023 5.917 26.832h.027v-.105c0-3.196 1.356-6.078 3.568-8.174a12.525 12.525 0 018.52-3.38v.027h.11c3.375 0 6.417 1.283 8.63 3.38 1.535 1.454 2.665 3.285 3.209 5.318h5.31c-.625-3.402-2.375-6.448-4.853-8.79l.013-.013c-3.153-2.987-7.496-4.82-12.309-4.82h-.027v-.027z"/>
    <path fill-rule="evenodd" d="M76.505 26.753c0-4.505 1.891-8.575 4.98-11.553 3.152-3.039 7.55-4.926 12.39-4.952v4.925c-3.36 0-6.396 1.304-8.602 3.38-2.213 2.096-3.568 4.978-3.568 8.174v.105h-.027c.022 3.191 1.428 6.069 3.65 8.148l-.013.013c2.204 2.041 5.207 3.288 8.533 3.288h.11v.026c3.906-.017 7.396-1.794 9.626-4.506l4.121 2.986c-3.18 3.93-8.187 6.445-13.802 6.445v-.026h-.028c-4.729 0-9.026-1.79-12.17-4.716-3.178-2.958-5.163-7.047-5.2-11.606v-.13zm25.945-8.252c1.577 1.467 2.738 3.327 3.291 5.397H92.907v4.925h18.173v-4.925h-.028c-.636-3.459-2.406-6.55-4.979-8.908l-3.623 3.51z" clip-rule="evenodd"/>
</svg>
